(PR1CHASSISCAMJOB)
(T1  D=3 CR=1 - ZMIN=-4.2 - bullnose end mill)
G90 G94
G17
G21
G28 G91 Z0
G90

(Foret1)
T1
S12000 M3
G54
M8
G0 X28.5 Y5.483
Z15
Z5
G1 Z-4.2 F402
G0 Z5
X31.3 Y15.983
G1 Z-4.2 F402
G0 Z5
X27.577 Y25.483
G1 Z-4.2 F402
G0 Z5
X38.177
G1 Z-4.2 F402
G0 Z5
X9.445
G1 Z-4.2 F402
G0 Z5
Y62.483
G1 Z-4.2 F402
G0 Z5
X38.177
G1 Z-4.2 F402
G0 Z5
X27.577
G1 Z-4.2 F402
G0 Z5
X31.3 Y71.983
G1 Z-4.2 F402
G0 Z5
X28.5 Y82.483
G1 Z-4.2 F402
G0 Z5
X64.811 Y49.018
G1 Z-4.2 F402
G0 Z5
Y39.018
G1 Z-4.2 F402
G0 Z5
X119.211 Y56.233
G1 Z-4.2 F402
G0 Z5
Y49.233
G1 Z-4.2 F402
G0 Z5
Y42.233
G1 Z-4.2 F402
G0 Z5
X129.211
G1 Z-4.2 F402
G0 Z5
Y49.233
G1 Z-4.2 F402
G0 Z5
Y56.233
G1 Z-4.2 F402
G0 Z5
X150.711 Y79.483
G1 Z-4.2 F402
G0 Z5
X159.711 Y71.983
G1 Z-4.2 F402
G0 Z5
X177.978 Y68.733
G1 Z-4.2 F402
G0 Z5
X208.643
G1 Z-4.2 F402
G0 Z5
X225.5 Y74.233
G1 Z-4.2 F402
G0 Z5
Y13.733
G1 Z-4.2 F402
G0 Z5
X208.643 Y19.233
G1 Z-4.2 F402
G0 Z5
X177.978
G1 Z-4.2 F402
G0 Z5
Z15

(Contour 2D2)
X232.9 Y44.283
Z10
Z5
G1 Z2 F402
Z-0.7
G18 G3 X232.6 Z-1 I-0.3 K0 F1206
G1 X232.3
G17 G3 X232 Y43.983 I0 J-0.3
G1 Y13.733
Y13.705
X231.995 Y13.438
X231.991 Y13.361
X231.971 Y13.074
X231.962 Y12.984
X231.923 Y12.686
X231.905 Y12.578
X231.843 Y12.277
X231.809 Y12.142
X231.719 Y11.846
X231.694 Y11.77
X231.664 Y11.695
X231.545 Y11.416
X231.505 Y11.33
X231.46 Y11.247
X231.307 Y10.985
X231.228 Y10.863
X231.138 Y10.738
X231.081 Y10.664
X230.982 Y10.544
X230.91 Y10.463
X230.798 Y10.345
X230.732 Y10.279
X230.608 Y10.164
X230.538 Y10.103
X230.401 Y9.991
X230.327 Y9.934
X230.175 Y9.824
X230.105 Y9.777
X229.938 Y9.67
X229.867 Y9.628
X229.68 Y9.522
X229.609 Y9.485
X229.396 Y9.38
X229.33 Y9.349
X229.09 Y9.244
X229.027 Y9.219
X228.758 Y9.116
X228.694 Y9.093
X228.392 Y8.993
X228.334 Y8.975
X227.999 Y8.878
X227.948 Y8.865
X227.6 Y8.778
X227.552 Y8.767
X227.196 Y8.69
X227.156 Y8.682
X226.798 Y8.616
X226.746 Y8.607
X226.034 Y8.5
X225.923 Y8.487
X225.811 Y8.483
X167.311
Y0.233
G2 X165.811 Y-1.267 I-1.5 J0
G1 X75.811
G2 X75.061 Y-1.066 I0 J1.5
G1 X45.098 Y16.233
X42.854
X33.79 Y0.967
G2 X33.594 Y0.707 I-1.29 J0.766
X23.406 Y0.707 I-5.094 J4.776
X23 Y1.733 I1.094 J1.026
G1 Y16.233
X14.5
G2 X13.879 Y16.367 I0 J1.5
G1 X8.38 Y18.867
X-0.62 Y22.949
G2 X-1.5 Y24.316 I0.62 J1.366
G1 Y63.65
G2 X-0.62 Y65.016 I1.5 J0
G1 X8.38 Y69.099
X13.879 Y71.598
G2 X14.5 Y71.733 I0.621 J-1.366
G1 X23
Y86.233
G2 X23.406 Y87.259 I1.5 J0
X33.594 Y87.259 I5.094 J-4.776
X33.79 Y86.999 I-1.094 J-1.026
G1 X42.854 Y71.733
X45.098
X75.061 Y89.032
G2 X75.811 Y89.233 I0.75 J-1.299
G1 X165.811
G2 X167.311 Y87.733 I0 J-1.5
G1 Y79.483
X225.811
X225.92 Y79.479
X226.029 Y79.467
X226.638 Y79.377
X226.697 Y79.368
X227.302 Y79.254
X227.375 Y79.238
X227.963 Y79.097
X228.029 Y79.08
X228.313 Y78.998
X228.363 Y78.983
X228.638 Y78.893
X228.695 Y78.873
X228.96 Y78.774
X229.025 Y78.748
X229.277 Y78.641
X229.345 Y78.61
X229.578 Y78.497
X229.653 Y78.458
X229.861 Y78.342
X229.941 Y78.294
X230.125 Y78.176
X230.199 Y78.124
X230.363 Y78.004
X230.447 Y77.939
X230.59 Y77.818
X230.659 Y77.755
X230.786 Y77.633
X230.862 Y77.555
X230.975 Y77.43
X231.042 Y77.351
X231.145 Y77.219
X231.211 Y77.127
X231.303 Y76.99
X231.356 Y76.904
X231.439 Y76.759
X231.486 Y76.671
X231.56 Y76.52
X231.603 Y76.424
X231.667 Y76.267
X231.71 Y76.145
X231.809 Y75.824
X231.846 Y75.682
X231.911 Y75.364
X231.93 Y75.244
X231.967 Y74.94
X231.975 Y74.855
X231.993 Y74.574
X231.996 Y74.514
X231.999 Y74.386
Y74.363
X232 Y74.246
Y74.233
Y43.983
G3 X232.3 Y43.683 I0.3 J0
G1 X232.6
G18 G2 X232.9 Z-0.7 I0 K0.3
G0 Z5
Y44.283
G1 Z1.729 F402
Z-1.7
G3 X232.6 Z-2 I-0.3 K0 F1206
G1 X232.3
G17 G3 X232 Y43.983 I0 J-0.3
G1 Y13.733
Y13.705
X231.995 Y13.438
X231.991 Y13.361
X231.971 Y13.074
X231.962 Y12.984
X231.923 Y12.686
X231.905 Y12.578
X231.843 Y12.277
X231.809 Y12.142
X231.719 Y11.846
X231.694 Y11.77
X231.664 Y11.695
X231.545 Y11.416
X231.505 Y11.33
X231.46 Y11.247
X231.307 Y10.985
X231.228 Y10.863
X231.138 Y10.738
X231.081 Y10.664
X230.982 Y10.544
X230.91 Y10.463
X230.798 Y10.345
X230.732 Y10.279
X230.608 Y10.164
X230.538 Y10.103
X230.401 Y9.991
X230.327 Y9.934
X230.175 Y9.824
X230.105 Y9.777
X229.938 Y9.67
X229.867 Y9.628
X229.68 Y9.522
X229.609 Y9.485
X229.396 Y9.38
X229.33 Y9.349
X229.09 Y9.244
X229.027 Y9.219
X228.758 Y9.116
X228.694 Y9.093
X228.392 Y8.993
X228.334 Y8.975
X227.999 Y8.878
X227.948 Y8.865
X227.6 Y8.778
X227.552 Y8.767
X227.196 Y8.69
X227.156 Y8.682
X226.798 Y8.616
X226.746 Y8.607
X226.034 Y8.5
X225.923 Y8.487
X225.811 Y8.483
X167.311
Y0.233
G2 X165.811 Y-1.267 I-1.5 J0
G1 X75.811
G2 X75.061 Y-1.066 I0 J1.5
G1 X45.098 Y16.233
X42.854
X33.79 Y0.967
G2 X33.594 Y0.707 I-1.29 J0.766
X23.406 Y0.707 I-5.094 J4.776
X23 Y1.733 I1.094 J1.026
G1 Y16.233
X14.5
G2 X13.879 Y16.367 I0 J1.5
G1 X8.38 Y18.867
X-0.62 Y22.949
G2 X-1.5 Y24.316 I0.62 J1.366
G1 Y63.65
G2 X-0.62 Y65.016 I1.5 J0
G1 X8.38 Y69.099
X13.879 Y71.598
G2 X14.5 Y71.733 I0.621 J-1.366
G1 X23
Y86.233
G2 X23.406 Y87.259 I1.5 J0
X33.594 Y87.259 I5.094 J-4.776
X33.79 Y86.999 I-1.094 J-1.026
G1 X42.854 Y71.733
X45.098
X75.061 Y89.032
G2 X75.811 Y89.233 I0.75 J-1.299
G1 X165.811
G2 X167.311 Y87.733 I0 J-1.5
G1 Y79.483
X225.811
X225.92 Y79.479
X226.029 Y79.467
X226.638 Y79.377
X226.697 Y79.368
X227.302 Y79.254
X227.375 Y79.238
X227.963 Y79.097
X228.029 Y79.08
X228.313 Y78.998
X228.363 Y78.983
X228.638 Y78.893
X228.695 Y78.873
X228.96 Y78.774
X229.025 Y78.748
X229.277 Y78.641
X229.345 Y78.61
X229.578 Y78.497
X229.653 Y78.458
X229.861 Y78.342
X229.941 Y78.294
X230.125 Y78.176
X230.199 Y78.124
X230.363 Y78.004
X230.447 Y77.939
X230.59 Y77.818
X230.659 Y77.755
X230.786 Y77.633
X230.862 Y77.555
X230.975 Y77.43
X231.042 Y77.351
X231.145 Y77.219
X231.211 Y77.127
X231.303 Y76.99
X231.356 Y76.904
X231.439 Y76.759
X231.486 Y76.671
X231.56 Y76.52
X231.603 Y76.424
X231.667 Y76.267
X231.71 Y76.145
X231.809 Y75.824
X231.846 Y75.682
X231.911 Y75.364
X231.93 Y75.244
X231.967 Y74.94
X231.975 Y74.855
X231.993 Y74.574
X231.996 Y74.514
X231.999 Y74.386
Y74.363
X232 Y74.246
Y74.233
Y43.983
G3 X232.3 Y43.683 I0.3 J0
G1 X232.6
G18 G2 X232.9 Z-1.7 I0 K0.3
G0 Z5
Y44.283
G1 Z0.729 F402
Z-2.7
G3 X232.6 Z-3 I-0.3 K0 F1206
G1 X232.3
G17 G3 X232 Y43.983 I0 J-0.3
G1 Y31.858
Z-2.95
Y25.858
Z-3 F402
Y13.733 F1206
Y13.705
X231.995 Y13.438
X231.991 Y13.361
X231.971 Y13.074
X231.962 Y12.984
X231.923 Y12.686
X231.905 Y12.578
X231.843 Y12.277
X231.809 Y12.142
X231.719 Y11.846
X231.694 Y11.77
X231.664 Y11.695
X231.545 Y11.416
X231.505 Y11.33
X231.46 Y11.247
X231.307 Y10.985
X231.228 Y10.863
X231.138 Y10.738
X231.081 Y10.664
X230.982 Y10.544
X230.91 Y10.463
X230.798 Y10.345
X230.732 Y10.279
X230.608 Y10.164
X230.538 Y10.103
X230.401 Y9.991
X230.327 Y9.934
X230.175 Y9.824
X230.105 Y9.777
X229.938 Y9.67
X229.867 Y9.628
X229.68 Y9.522
X229.609 Y9.485
X229.396 Y9.38
X229.33 Y9.349
X229.09 Y9.244
X229.027 Y9.219
X228.758 Y9.116
X228.694 Y9.093
X228.392 Y8.993
X228.334 Y8.975
X227.999 Y8.878
X227.948 Y8.865
X227.6 Y8.778
X227.552 Y8.767
X227.196 Y8.69
X227.156 Y8.682
X226.798 Y8.616
X226.746 Y8.607
X226.034 Y8.5
X225.923 Y8.487
X225.811 Y8.483
X213.811
Z-2.95
X207.811
Z-3 F402
X183.811 F1206
Z-2.95
X177.811
Z-3 F402
X167.311 F1206
Y0.233
G2 X165.811 Y-1.267 I-1.5 J0
G1 X153.811
Z-2.95
X147.811
Z-3 F402
X123.811 F1206
Z-2.95
X117.811
Z-3 F402
X93.811 F1206
Z-2.95
X87.811
Z-3 F402
X75.811 F1206
G2 X75.061 Y-1.066 I0 J1.5
G1 X62.503 Y6.184
Z-2.95
X57.307 Y9.184
Z-3 F402
X45.098 Y16.233 F1206
X42.854
X33.79 Y0.967
G2 X33.594 Y0.707 I-1.29 J0.766
X23.406 Y0.707 I-5.094 J4.776
X23 Y1.733 I1.094 J1.026
G1 Y16.233
X14.5
G2 X13.879 Y16.367 I0 J1.5
G1 X8.38 Y18.867
X-0.62 Y22.949
G2 X-1.5 Y24.316 I0.62 J1.366
G1 Y40.983
Z-2.95
Y46.983
Z-3 F402
Y63.65 F1206
G2 X-0.62 Y65.016 I1.5 J0
G1 X8.38 Y69.099
X13.879 Y71.598
G2 X14.5 Y71.733 I0.621 J-1.366
G1 X23
Y86.233
G2 X23.406 Y87.259 I1.5 J0
X33.594 Y87.259 I5.094 J-4.776
X33.79 Y86.999 I-1.094 J-1.026
G1 X42.854 Y71.733
X45.098
X57.307 Y78.782
Z-2.95
X62.503 Y81.782
Z-3 F402
X75.061 Y89.032 F1206
G2 X75.811 Y89.233 I0.75 J-1.299
G1 X87.811
Z-2.95
X93.811
Z-3 F402
X117.811 F1206
Z-2.95
X123.811
Z-3 F402
X147.811 F1206
Z-2.95
X153.811
Z-3 F402
X165.811 F1206
G2 X167.311 Y87.733 I0 J-1.5
G1 Y79.483
X177.811
Z-2.95
X183.811
Z-3 F402
X207.811 F1206
Z-2.95
X213.811
Z-3 F402
X225.811 F1206
X225.92 Y79.479
X226.029 Y79.467
X226.638 Y79.377
X226.697 Y79.368
X227.302 Y79.254
X227.375 Y79.238
X227.963 Y79.097
X228.029 Y79.08
X228.313 Y78.998
X228.363 Y78.983
X228.638 Y78.893
X228.695 Y78.873
X228.96 Y78.774
X229.025 Y78.748
X229.277 Y78.641
X229.345 Y78.61
X229.578 Y78.497
X229.653 Y78.458
X229.861 Y78.342
X229.941 Y78.294
X230.125 Y78.176
X230.199 Y78.124
X230.363 Y78.004
X230.447 Y77.939
X230.59 Y77.818
X230.659 Y77.755
X230.786 Y77.633
X230.862 Y77.555
X230.975 Y77.43
X231.042 Y77.351
X231.145 Y77.219
X231.211 Y77.127
X231.303 Y76.99
X231.356 Y76.904
X231.439 Y76.759
X231.486 Y76.671
X231.56 Y76.52
X231.603 Y76.424
X231.667 Y76.267
X231.71 Y76.145
X231.809 Y75.824
X231.846 Y75.682
X231.911 Y75.364
X231.93 Y75.244
X231.967 Y74.94
X231.975 Y74.855
X231.993 Y74.574
X231.996 Y74.514
X231.999 Y74.386
Y74.363
X232 Y74.246
Y74.233
Y62.108
Z-2.95
Y56.108
Z-3 F402
Y43.983 F1206
G3 X232.3 Y43.683 I0.3 J0
G1 X232.6
G18 G2 X232.9 Z-2.7 I0 K0.3
G0 Z5
Y44.283
G1 Z-0.271 F402
Z-3.4
G3 X232.6 Z-3.7 I-0.3 K0 F1206
G1 X232.3
G17 G3 X232 Y43.983 I0 J-0.3
G1 Y31.858
Z-2.95
Y25.858
Z-3.7 F402
Y13.733 F1206
Y13.705
X231.995 Y13.438
X231.991 Y13.361
X231.971 Y13.074
X231.962 Y12.984
X231.923 Y12.686
X231.905 Y12.578
X231.843 Y12.277
X231.809 Y12.142
X231.719 Y11.846
X231.694 Y11.77
X231.664 Y11.695
X231.545 Y11.416
X231.505 Y11.33
X231.46 Y11.247
X231.307 Y10.985
X231.228 Y10.863
X231.138 Y10.738
X231.081 Y10.664
X230.982 Y10.544
X230.91 Y10.463
X230.798 Y10.345
X230.732 Y10.279
X230.608 Y10.164
X230.538 Y10.103
X230.401 Y9.991
X230.327 Y9.934
X230.175 Y9.824
X230.105 Y9.777
X229.938 Y9.67
X229.867 Y9.628
X229.68 Y9.522
X229.609 Y9.485
X229.396 Y9.38
X229.33 Y9.349
X229.09 Y9.244
X229.027 Y9.219
X228.758 Y9.116
X228.694 Y9.093
X228.392 Y8.993
X228.334 Y8.975
X227.999 Y8.878
X227.948 Y8.865
X227.6 Y8.778
X227.552 Y8.767
X227.196 Y8.69
X227.156 Y8.682
X226.798 Y8.616
X226.746 Y8.607
X226.034 Y8.5
X225.923 Y8.487
X225.811 Y8.483
X213.811
Z-2.95
X207.811
Z-3.7 F402
X183.811 F1206
Z-2.95
X177.811
Z-3.7 F402
X167.311 F1206
Y0.233
G2 X165.811 Y-1.267 I-1.5 J0
G1 X153.811
Z-2.95
X147.811
Z-3.7 F402
X123.811 F1206
Z-2.95
X117.811
Z-3.7 F402
X93.811 F1206
Z-2.95
X87.811
Z-3.7 F402
X75.811 F1206
G2 X75.061 Y-1.066 I0 J1.5
G1 X62.503 Y6.184
Z-2.95
X57.307 Y9.184
Z-3.7 F402
X45.098 Y16.233 F1206
X42.854
X33.79 Y0.967
G2 X33.594 Y0.707 I-1.29 J0.766
X23.406 Y0.707 I-5.094 J4.776
X23 Y1.733 I1.094 J1.026
G1 Y16.233
X14.5
G2 X13.879 Y16.367 I0 J1.5
G1 X8.38 Y18.867
X-0.62 Y22.949
G2 X-1.5 Y24.316 I0.62 J1.366
G1 Y40.983
Z-2.95
Y46.983
Z-3.7 F402
Y63.65 F1206
G2 X-0.62 Y65.016 I1.5 J0
G1 X8.38 Y69.099
X13.879 Y71.598
G2 X14.5 Y71.733 I0.621 J-1.366
G1 X23
Y86.233
G2 X23.406 Y87.259 I1.5 J0
X33.594 Y87.259 I5.094 J-4.776
X33.79 Y86.999 I-1.094 J-1.026
G1 X42.854 Y71.733
X45.098
X57.307 Y78.782
Z-2.95
X62.503 Y81.782
Z-3.7 F402
X75.061 Y89.032 F1206
G2 X75.811 Y89.233 I0.75 J-1.299
G1 X87.811
Z-2.95
X93.811
Z-3.7 F402
X117.811 F1206
Z-2.95
X123.811
Z-3.7 F402
X147.811 F1206
Z-2.95
X153.811
Z-3.7 F402
X165.811 F1206
G2 X167.311 Y87.733 I0 J-1.5
G1 Y79.483
X177.811
Z-2.95
X183.811
Z-3.7 F402
X207.811 F1206
Z-2.95
X213.811
Z-3.7 F402
X225.811 F1206
X225.92 Y79.479
X226.029 Y79.467
X226.638 Y79.377
X226.697 Y79.368
X227.302 Y79.254
X227.375 Y79.238
X227.963 Y79.097
X228.029 Y79.08
X228.313 Y78.998
X228.363 Y78.983
X228.638 Y78.893
X228.695 Y78.873
X228.96 Y78.774
X229.025 Y78.748
X229.277 Y78.641
X229.345 Y78.61
X229.578 Y78.497
X229.653 Y78.458
X229.861 Y78.342
X229.941 Y78.294
X230.125 Y78.176
X230.199 Y78.124
X230.363 Y78.004
X230.447 Y77.939
X230.59 Y77.818
X230.659 Y77.755
X230.786 Y77.633
X230.862 Y77.555
X230.975 Y77.43
X231.042 Y77.351
X231.145 Y77.219
X231.211 Y77.127
X231.303 Y76.99
X231.356 Y76.904
X231.439 Y76.759
X231.486 Y76.671
X231.56 Y76.52
X231.603 Y76.424
X231.667 Y76.267
X231.71 Y76.145
X231.809 Y75.824
X231.846 Y75.682
X231.911 Y75.364
X231.93 Y75.244
X231.967 Y74.94
X231.975 Y74.855
X231.993 Y74.574
X231.996 Y74.514
X231.999 Y74.386
Y74.363
X232 Y74.246
Y74.233
Y62.108
Z-2.95
Y56.108
Z-3.7 F402
Y43.983 F1206
G3 X232.3 Y43.683 I0.3 J0
G1 X232.6
G18 G2 X232.9 Z-3.4 I0 K0.3
G0 Z10
G17
M9
G28 G91 Z0
G90
G28 G91 X0 Y0
G90
M5
M30
